brandFactory_export/3.Masa/Añadir ruta_Ubicacion_3Masa.svg

<?xml version="1.0" encoding="UTF-8"?>
<svg width="24px" height="24px" viewBox="0 0 24 24" version="1.1" xmlns="http://www.w3.org/2000/svg" xmlns:xlink="http://www.w3.org/1999/xlink">
    <title>3.Masa/Añadir ruta_Ubicacion_3Masa</title>
    <g id="Symbols" stroke="none" stroke-width="1" fill="none" fill-rule="evenodd">
        <g id="3.Masa/Añadir-ruta_Ubicacion_3Masa" fill="#5CB615" fill-rule="nonzero">
            <path d="M15.0655462,10.2689076 C16.6521008,10.2689076 17.6369748,9.29747899 17.6369748,7.73445378 C17.6369748,6.17142857 16.6521008,5.2 15.0655462,5.2 C13.4756303,5.2 12.4907563,6.17142857 12.4907563,7.73445378 C12.4907563,9.29747899 13.4789916,10.2689076 15.0655462,10.2689076 L15.0655462,10.2689076 Z M6.62521008,20.4907563 C8.34621849,20.4605042 11.2537815,19.794958 11.2537815,15.687395 C11.2537815,11.5798319 8.32605042,10.8941176 6.58487395,10.8470588 L6.03697479,10.8470588 C4.32605042,10.8638655 1.46890756,11.502521 1.46890756,15.6470588 C1.46890756,19.8117647 4.36638655,20.4672269 6.08739496,20.497479 L6.27563025,20.497479 C6.38991597,20.497479 6.51764706,20.497479 6.62521008,20.4907563 Z M21.3714286,2.26554622 C22.8504202,3.74117647 23.6336134,5.89915966 23.6236256,8.52436975 C23.6134454,14.0605042 16.5109244,22.4201681 15.4991597,23.4117647 C15.3512605,23.5563025 15.1663866,23.6235294 14.9815126,23.6235294 C14.7966387,23.6235294 14.5983193,23.5563025 14.4638655,23.4117647 C13.9563025,22.9210084 12.8201681,21.6 11.4991597,19.7680672 C9.97310924,21.7042017 7.47563025,21.9294118 6.65546218,21.9361345 C6.53781513,21.9462185 6.40336134,21.9462185 6.27563025,21.9462185 L6.07058824,21.9462185 C4.79663866,21.9294118 0.00336134454,21.4722689 0.00336134454,15.6504202 C0.00336134454,9.84537815 4.74957983,9.41176471 6.02016807,9.40168067 L6.4605042,9.40168067 C6.42016807,9.08235294 6.39327731,8.76302521 6.40336134,8.46386555 C6.40336134,5.85210084 7.19663866,3.6907563 8.69243697,2.22521008 C10.1915966,0.759663866 12.4,0.00672268908 15.0453782,0 C17.6941176,0.0100840336 19.8857143,0.789915966 21.3714286,2.26554622 Z M7.08907563,14.9310924 L9.52941176,14.9310924 C9.93613445,14.9310924 10.2621849,15.2537815 10.2621849,15.6537815 C10.2621849,16.0537815 9.93277311,16.3764706 9.52941176,16.3764706 L7.08907563,16.3764706 L7.08907563,18.7865546 C7.08907563,19.1865546 6.75966387,19.5092437 6.35630252,19.5092437 C5.94957983,19.5092437 5.62352941,19.1865546 5.62352941,18.7865546 L5.62352941,16.3764706 L3.18991597,16.3764706 C2.78319328,16.3764706 2.45714286,16.0537815 2.45714286,15.6537815 C2.45714286,15.2537815 2.78655462,14.9310924 3.18991597,14.9310924 L5.62352941,14.9310924 L5.62352941,12.5546218 C5.62352941,12.1546218 5.95294118,11.8319328 6.35630252,11.8319328 C6.76302521,11.8319328 7.08907563,12.1546218 7.08907563,12.5546218 L7.08907563,14.9310924 Z" id="Añadir-ruta_Ubicacion_3Masa"></path>
        </g>
    </g>
</svg>

<svg width="24" height="24" viewBox="0 0 24 24" xmlns="http://www.w3.org/2000/svg"><path d="M15.066 10.269c1.586 0 2.571-.972 2.571-2.535 0-1.563-.985-2.534-2.571-2.534-1.59 0-2.575.971-2.575 2.534 0 1.563.988 2.535 2.575 2.535zM6.626 20.49c1.72-.03 4.628-.696 4.628-4.804 0-4.107-2.928-4.793-4.67-4.84h-.547c-1.71.017-4.568.656-4.568 4.8 0 4.165 2.897 4.82 4.618 4.85h.189c.114 0 .242 0 .35-.006zM21.37 2.266c1.48 1.475 2.263 3.633 2.253 6.258-.01 5.537-7.113 13.896-8.125 14.888a.733.733 0 01-.517.212.71.71 0 01-.518-.212c-.508-.491-1.644-1.812-2.965-3.644-1.526 1.936-4.023 2.161-4.844 2.168-.117.01-.252.01-.38.01h-.204C4.797 21.93.003 21.472.003 15.65c0-5.805 4.747-6.238 6.017-6.248h.44a6 6 0 01-.057-.938c0-2.612.794-4.773 2.29-6.239C10.191.76 12.4.007 15.044 0c2.65.01 4.84.79 6.326 2.266zM7.09 14.93h2.44c.407 0 .733.323.733.723 0 .4-.33.722-.733.722H7.09v2.41c0 .4-.33.723-.733.723a.726.726 0 01-.732-.722v-2.41H3.19a.726.726 0 01-.733-.723c0-.4.33-.723.733-.723h2.434v-2.376c0-.4.329-.723.732-.723.407 0 .733.323.733.723v2.376z" fill="#5CB615" fill-rule="nonzero"/></svg>
